weblate_web/static/img/icon-download.svg

<svg width="14" height="17" version="1.1" viewBox="0 0 14 17" xmlns="http://www.w3.org/2000/svg"><path d="m0 17h14v-2h-14m14-9h-4v-6h-6v6h-4l7 7z" fill="#fff"/></svg>

<svg xmlns="http://www.w3.org/2000/svg" xmlns:svg="http://www.w3.org/2000/svg" id="svg4" width="14" height="17" version="1.1" viewBox="0 0 14 17"><metadata id="metadata10"/><path id="path2" fill="#fff" d="M 0,17 H 14 V 15 H 0 M 14,6 H 10 V 0 H 4 V 6 H 0 l 7,7 z"/></svg>
